Newaita-dark/mimetypes/48/text-vnd-trolltech-linguist.svg

<svg height="48pt" viewBox="0 0 48 48" width="48pt" xmlns="http://www.w3.org/2000/svg" xmlns:xlink="http://www.w3.org/1999/xlink"><linearGradient id="a"><stop offset="0" stop-opacity=".27451"/><stop offset="1" stop-opacity="0"/></linearGradient><linearGradient id="b" gradientUnits="userSpaceOnUse" x1="24.807067" x2="24.807067" xlink:href="#a" y1="42.0509015" y2="44.03546731253"/><linearGradient id="c"><stop offset="0" stop-opacity=".313725"/><stop offset=".222222" stop-opacity=".27451"/><stop offset="1" stop-opacity="0"/></linearGradient><radialGradient id="d" cx="450.90894" cy="189.57936" gradientTransform="matrix(.00000026 -.117199 -.210958 -.00000015 74.226852 95.393)" gradientUnits="userSpaceOnUse" r="21.166656" xlink:href="#c"/><radialGradient id="e" cx="450.90894" cy="189.57936" gradientTransform="matrix(-.00000026 .117199 .210958 .00000015 -27.589578 -11.29122)" gradientUnits="userSpaceOnUse" r="21.166656" xlink:href="#c"/><radialGradient id="f" cx="450.90894" cy="189.57936" gradientTransform="matrix(-.00000026 -.117199 .210958 -.00000015 -27.589578 95.393)" gradientUnits="userSpaceOnUse" r="21.166656" xlink:href="#c"/><radialGradient id="g" cx="450.90894" cy="189.57936" gradientTransform="matrix(.00000026 .117199 -.210958 .00000015 74.22685 -11.291221)" gradientUnits="userSpaceOnUse" r="21.166656" xlink:href="#c"/><linearGradient id="h" gradientUnits="userSpaceOnUse" x1="23.318674" x2="23.318674" y1="42.05096669922" y2="4.34417271465"><stop offset="0" stop-color="#616161"/><stop offset="1" stop-color="#757575"/></linearGradient><linearGradient id="i" gradientTransform="matrix(.0448412 0 0 .164078 22.563635 -24.789435)" gradientUnits="userSpaceOnUse" x1="249.18942" x2="249.18942" xlink:href="#a" y1="233.5" y2="254.66669"/><linearGradient id="j"><stop offset="0" stop-color="#424242"/><stop offset="1" stop-color="#616161"/></linearGradient><linearGradient id="k" gradientUnits="userSpaceOnUse" x1="31.75304737494" x2="31.75304737494" xlink:href="#j" y1="42.0509015" y2="4.34415668747"/><linearGradient id="l" gradientUnits="userSpaceOnUse" x1="800.00012649104" x2="819.99962862409" xlink:href="#j" y1="1695.11819267241" y2="175.11810090943"/><path d="m11.90625 42.050781h22.824219v1.984375h-22.824219zm0 0" fill="url(#b)"/><path d="m34.730469 42.050781h3.96875v-1.984375h-3.96875zm0 0" fill="url(#d)"/><path d="m11.90625 42.050781h-3.96875v1.984375h3.96875zm0 0" fill="url(#e)"/><path d="m11.90625 42.050781h-3.96875v-1.984375h3.96875zm0 0" fill="url(#f)"/><path d="m34.730469 42.050781h3.96875v1.984375h-3.96875zm0 0" fill="url(#g)"/><path d="m27.8125 4.34375h-17.890625c-1.097656 0-1.984375.886719-1.984375 1.984375v33.738281c0 1.097656.886719 1.984375 1.984375 1.984375h26.792969c1.097656 0 1.984375-.886719 1.984375-1.984375v-24.835937zm0 0" fill="url(#h)"/><path d="m7.9375 39.296875v.769531c0 1.097656.886719 1.984375 1.984375 1.984375h26.792969c1.097656 0 1.984375-.886719 1.984375-1.984375v-.769531c0 1.097656-.886719 1.984375-1.984375 1.984375h-26.792969c-1.097656 0-1.984375-.886719-1.984375-1.984375zm0 0" fill-opacity=".235294"/><path d="m27.785156 13.523438h9.425782l1.488281 1.488281v1.984375h-10.914063zm0 0" fill="url(#i)"/><path d="m9.921875 4.34375c-1.097656 0-1.984375.886719-1.984375 1.984375v.746094c0-1.101563.886719-1.984375 1.984375-1.984375h17.890625l10.886719 10.882812v-.742187l-10.886719-10.886719zm0 0" fill="#fff" fill-opacity=".392157"/><path d="m38.699219 15.230469-10.886719-10.886719v8.902344c0 1.097656.886719 1.984375 1.984375 1.984375zm0 0" fill="url(#k)"/><path d="m27.8125 12.777344v.46875c0 1.097656.886719 1.984375 1.984375 1.984375h8.902344l-.46875-.46875h-8.433594c-1.097656 0-1.984375-.882813-1.984375-1.984375zm0 0" fill-opacity=".235294"/><path d="m27.8125 4.34375v.746094l10.140625 10.140625h.746094zm0 0" fill="#fff" fill-opacity=".392157"/><path d="m27.8125 4.203125c-.078125 0-.140625.0625-.140625.140625v8.902344c0 1.175781.949219 2.125 2.125 2.125h8.902344c.058593 0 .109375-.035156.128906-.085938.023437-.054687.011719-.113281-.03125-.15625l-10.882813-10.882812c-.027343-.027344-.066406-.042969-.101562-.042969zm.140625.480469 10.40625 10.40625h-8.5625c-1.023437 0-1.84375-.820313-1.84375-1.84375zm0 0" fill="#212121"/><path d="m9.921875 4.203125c-1.175781 0-2.125.949219-2.125 2.125v33.738281c0 1.175782.949219 2.125 2.125 2.125h26.792969c1.175781 0 2.125-.949218 2.125-2.125v-24.835937c0-.039063-.015625-.074219-.042969-.101563l-10.882813-10.882812c-.027343-.027344-.0625-.042969-.101562-.042969zm0 .28125h17.832031l10.804688 10.804687v24.777344c0 1.023438-.820313 1.84375-1.84375 1.84375h-26.792969c-1.023437 0-1.84375-.820312-1.84375-1.84375v-33.738281c0-1.023437.820313-1.84375 1.84375-1.84375zm0 0" fill="#212121"/><path d="m774.414246 706.389245c-12.912153.157465-24.249653 8.503125-30.863195 18.580903 6.456077 24.249653 1.417188 49.601563.157465 74.166147-37.634202 1.417187-75.425869.944791-113.060071-.472396-28.973611 8.503125-38.578993 42.830556-3.936632 55.585244 37.791668-1.417188 75.583335-3.306771 113.217537-5.511285-1.732118 34.799827-2.204514 69.757119-1.732118 104.714411-27.871355 12.124826-53.853126 28.973611-75.425869 50.546355-46.294793 44.877604-66.292883 117.784029-40.783508 178.408162 19.998091 46.294792 82.511807 57.002431 124.240106 35.429688 14.801736-1.102257 37.634202-30.70573 45.822396-17.951042 27.084028 45.822396 93.061981 2.519444 47.71198-53.853126 44.247744-50.073959 71.961633-111.957814 93.534376-174.628995 15.589063 2.834375 31.650521 6.298611 46.767188 11.967361v-48.971702c-2.361979-.629861-4.566493-1.259722-6.928472-1.889583-16.376389-2.834375-31.02066-5.196354-19.998091-23.147396 8.660591-12.597223 18.423438-16.061459 14.329341-27.241494-17.951042-5.98368-37.161806-8.030729-55.742709-12.439757-26.926563-5.66875-9.920313 36.059549-21.887674 51.491147-33.540105 1.889583-67.237675 5.353819-99.675522 14.171875 0-30.075869 1.732118-60.309202 3.779167-90.385071 62.513716-5.353819 125.027432-12.124826 186.911287-23.462326 20.627951-3.936632 20.627951-51.491147-15.431598-51.491147-49.444098 12.124827-99.832987 19.68316-150.379342 25.03698-24.879514 7.715798-12.912153-43.145487-3.621701-66.765279-12.597223-16.376389-25.509376-22.202605-37.004341-21.887674zm285.642017 208.798961c-22.202604 0-39.996181 18.265972-39.996181 41.098438v298.869101h59.994272v-113.375001h139.986634v113.375001h59.994271v-298.869101c0-22.832466-17.951042-41.098438-39.996181-41.098438zm-183.13212 52.435938c-14.644271 44.405209-31.965452 88.810418-59.521876 126.917016-12.912153-35.744619-22.675-72.74896-25.35191-110.855557 27.713889-7.715799 55.900175-14.329341 84.873786-16.061459zm223.128301 9.290452h99.990453c11.02257 0 19.998091 9.290451 19.998091 20.627951v82.354342h-139.986634v-82.354342c0-11.3375 8.818056-20.627951 19.99809-20.627951zm-358.233511 27.871354c2.519444 24.407119 5.826215 48.656772 11.180035 72.591494-1.259722 24.879514 32.280382 59.206945 5.826215 74.638543-22.517535 17.793576-58.419619 32.910243-84.40139 14.171875-15.589062-20.627952-12.282292-49.286633-6.928472-73.06389 8.818056-39.68125 40.153646-68.969792 74.323612-88.338022zm238.244968 170.219968c-23.619792 10.550173-49.601563 16.848785-74.008681 21.887673-18.580903-.472395-31.493056 80.464758 68.654862 45.03507 1.732118-.629861 3.621701-1.259722 5.353819-1.889583zm0 0" fill="url(#l)" stroke="#212121" stroke-width="11.338583" transform="scale(.0248071)"/></svg>

<?xml version="1.0" encoding="UTF-8"?>
<svg xmlns="http://www.w3.org/2000/svg" xmlns:xlink="http://www.w3.org/1999/xlink" width="48pt" height="48pt" viewBox="0 0 48 48" version="1.1">
<defs>
<linearGradient id="linear0" gradientUnits="userSpaceOnUse" x1="254" y1="233.5" x2="254" y2="254.66667" gradientTransform="matrix(0.093759,0,0,0.093759,0.992281,20.158175)">
<stop offset="0" style="stop-color:rgb(0%,0%,0%);stop-opacity:0.27451;"/>
<stop offset="1" style="stop-color:rgb(0%,0%,0%);stop-opacity:0;"/>
</linearGradient>
<radialGradient id="radial0" gradientUnits="userSpaceOnUse" cx="450.90894" cy="189.57936" fx="450.90894" fy="189.57936" r="21.166656" gradientTransform="matrix(0.000000261256,-0.117199,-0.210958,-0.000000152308,74.226852,95.393)">
<stop offset="0" style="stop-color:rgb(0%,0%,0%);stop-opacity:0.313725;"/>
<stop offset="0.222222" style="stop-color:rgb(0%,0%,0%);stop-opacity:0.27451;"/>
<stop offset="1" style="stop-color:rgb(0%,0%,0%);stop-opacity:0;"/>
</radialGradient>
<radialGradient id="radial1" gradientUnits="userSpaceOnUse" cx="450.90894" cy="189.57936" fx="450.90894" fy="189.57936" r="21.166656" gradientTransform="matrix(-0.000000261256,0.117199,0.210958,0.000000152308,-27.589578,-11.29122)">
<stop offset="0" style="stop-color:rgb(0%,0%,0%);stop-opacity:0.313725;"/>
<stop offset="0.222222" style="stop-color:rgb(0%,0%,0%);stop-opacity:0.27451;"/>
<stop offset="1" style="stop-color:rgb(0%,0%,0%);stop-opacity:0;"/>
</radialGradient>
<radialGradient id="radial2" gradientUnits="userSpaceOnUse" cx="450.90894" cy="189.57936" fx="450.90894" fy="189.57936" r="21.166656" gradientTransform="matrix(-0.000000261256,-0.117199,0.210958,-0.000000152308,-27.589578,95.393)">
<stop offset="0" style="stop-color:rgb(0%,0%,0%);stop-opacity:0.313725;"/>
<stop offset="0.222222" style="stop-color:rgb(0%,0%,0%);stop-opacity:0.27451;"/>
<stop offset="1" style="stop-color:rgb(0%,0%,0%);stop-opacity:0;"/>
</radialGradient>
<radialGradient id="radial3" gradientUnits="userSpaceOnUse" cx="450.90894" cy="189.57936" fx="450.90894" fy="189.57936" r="21.166656" gradientTransform="matrix(0.000000261256,0.117199,-0.210958,0.000000152308,74.22685,-11.291221)">
<stop offset="0" style="stop-color:rgb(0%,0%,0%);stop-opacity:0.313725;"/>
<stop offset="0.222222" style="stop-color:rgb(0%,0%,0%);stop-opacity:0.27451;"/>
<stop offset="1" style="stop-color:rgb(0%,0%,0%);stop-opacity:0;"/>
</radialGradient>
<linearGradient id="linear1" gradientUnits="userSpaceOnUse" x1="940" y1="1695.1182" x2="940" y2="175.11812" gradientTransform="matrix(0.0248071,0,0,0.0248071,0,0)">
<stop offset="0" style="stop-color:rgb(38.039216%,38.039216%,38.039216%);stop-opacity:1;"/>
<stop offset="1" style="stop-color:rgb(45.882353%,45.882353%,45.882353%);stop-opacity:1;"/>
</linearGradient>
<linearGradient id="linear2" gradientUnits="userSpaceOnUse" x1="249.18942" y1="233.5" x2="249.18942" y2="254.66669" gradientTransform="matrix(0.0448412,0,0,0.164078,22.563635,-24.789435)">
<stop offset="0" style="stop-color:rgb(0%,0%,0%);stop-opacity:0.27451;"/>
<stop offset="1" style="stop-color:rgb(0%,0%,0%);stop-opacity:0;"/>
</linearGradient>
<linearGradient id="linear3" gradientUnits="userSpaceOnUse" x1="338.66666" y1="233.5" x2="338.66666" y2="-168.66667" gradientTransform="matrix(0.093759,0,0,0.093759,0,20.158175)">
<stop offset="0" style="stop-color:rgb(25.882353%,25.882353%,25.882353%);stop-opacity:1;"/>
<stop offset="1" style="stop-color:rgb(38.039216%,38.039216%,38.039216%);stop-opacity:1;"/>
</linearGradient>
<linearGradient id="linear4" gradientUnits="userSpaceOnUse" x1="350.80048" y1="198.31967" x2="357.47583" y2="-309.01959" gradientTransform="matrix(2.996023,0,0,2.996023,-251.00618,1100.9479)">
<stop offset="0" style="stop-color:rgb(25.882353%,25.882353%,25.882353%);stop-opacity:1;"/>
<stop offset="1" style="stop-color:rgb(38.039216%,38.039216%,38.039216%);stop-opacity:1;"/>
</linearGradient>
</defs>
<g id="surface1">
<path style=" stroke:none;fill-rule:nonzero;fill:url(#linear0);" d="M 11.90625 42.050781 L 34.730469 42.050781 L 34.730469 44.035156 L 11.90625 44.035156 Z M 11.90625 42.050781 "/>
<path style=" stroke:none;fill-rule:nonzero;fill:url(#radial0);" d="M 34.730469 42.050781 L 38.699219 42.050781 L 38.699219 40.066406 L 34.730469 40.066406 Z M 34.730469 42.050781 "/>
<path style=" stroke:none;fill-rule:nonzero;fill:url(#radial1);" d="M 11.90625 42.050781 L 7.9375 42.050781 L 7.9375 44.035156 L 11.90625 44.035156 Z M 11.90625 42.050781 "/>
<path style=" stroke:none;fill-rule:nonzero;fill:url(#radial2);" d="M 11.90625 42.050781 L 7.9375 42.050781 L 7.9375 40.066406 L 11.90625 40.066406 Z M 11.90625 42.050781 "/>
<path style=" stroke:none;fill-rule:nonzero;fill:url(#radial3);" d="M 34.730469 42.050781 L 38.699219 42.050781 L 38.699219 44.035156 L 34.730469 44.035156 Z M 34.730469 42.050781 "/>
<path style=" stroke:none;fill-rule:nonzero;fill:url(#linear1);" d="M 27.8125 4.34375 L 9.921875 4.34375 C 8.824219 4.34375 7.9375 5.230469 7.9375 6.328125 L 7.9375 40.066406 C 7.9375 41.164062 8.824219 42.050781 9.921875 42.050781 L 36.714844 42.050781 C 37.8125 42.050781 38.699219 41.164062 38.699219 40.066406 L 38.699219 15.230469 Z M 27.8125 4.34375 "/>
<path style=" stroke:none;fill-rule:nonzero;fill:rgb(0%,0%,0%);fill-opacity:0.235294;" d="M 7.9375 39.296875 L 7.9375 40.066406 C 7.9375 41.164062 8.824219 42.050781 9.921875 42.050781 L 36.714844 42.050781 C 37.8125 42.050781 38.699219 41.164062 38.699219 40.066406 L 38.699219 39.296875 C 38.699219 40.394531 37.8125 41.28125 36.714844 41.28125 L 9.921875 41.28125 C 8.824219 41.28125 7.9375 40.394531 7.9375 39.296875 Z M 7.9375 39.296875 "/>
<path style=" stroke:none;fill-rule:nonzero;fill:url(#linear2);" d="M 27.785156 13.523438 L 37.210938 13.523438 L 38.699219 15.011719 L 38.699219 16.996094 L 27.785156 16.996094 Z M 27.785156 13.523438 "/>
<path style=" stroke:none;fill-rule:nonzero;fill:rgb(100%,100%,100%);fill-opacity:0.392157;" d="M 9.921875 4.34375 C 8.824219 4.34375 7.9375 5.230469 7.9375 6.328125 L 7.9375 7.074219 C 7.9375 5.972656 8.824219 5.089844 9.921875 5.089844 L 27.8125 5.089844 L 38.699219 15.972656 L 38.699219 15.230469 L 27.8125 4.34375 Z M 9.921875 4.34375 "/>
<path style=" stroke:none;fill-rule:nonzero;fill:url(#linear3);" d="M 38.699219 15.230469 L 27.8125 4.34375 L 27.8125 13.246094 C 27.8125 14.34375 28.699219 15.230469 29.796875 15.230469 Z M 38.699219 15.230469 "/>
<path style=" stroke:none;fill-rule:nonzero;fill:rgb(0%,0%,0%);fill-opacity:0.235294;" d="M 27.8125 12.777344 L 27.8125 13.246094 C 27.8125 14.34375 28.699219 15.230469 29.796875 15.230469 L 38.699219 15.230469 L 38.230469 14.761719 L 29.796875 14.761719 C 28.699219 14.761719 27.8125 13.878906 27.8125 12.777344 Z M 27.8125 12.777344 "/>
<path style=" stroke:none;fill-rule:nonzero;fill:rgb(100%,100%,100%);fill-opacity:0.392157;" d="M 27.8125 4.34375 L 27.8125 5.089844 L 37.953125 15.230469 L 38.699219 15.230469 Z M 27.8125 4.34375 "/>
<path style=" stroke:none;fill-rule:nonzero;fill:rgb(12.941176%,12.941176%,12.941176%);fill-opacity:1;" d="M 27.8125 4.203125 C 27.734375 4.203125 27.671875 4.265625 27.671875 4.34375 L 27.671875 13.246094 C 27.671875 14.421875 28.621094 15.371094 29.796875 15.371094 L 38.699219 15.371094 C 38.757812 15.371094 38.808594 15.335938 38.828125 15.285156 C 38.851562 15.230469 38.839844 15.171875 38.796875 15.128906 L 27.914062 4.246094 C 27.886719 4.21875 27.847656 4.203125 27.8125 4.203125 Z M 27.953125 4.683594 L 38.359375 15.089844 L 29.796875 15.089844 C 28.773438 15.089844 27.953125 14.269531 27.953125 13.246094 Z M 27.953125 4.683594 "/>
<path style=" stroke:none;fill-rule:nonzero;fill:rgb(12.941176%,12.941176%,12.941176%);fill-opacity:1;" d="M 9.921875 4.203125 C 8.746094 4.203125 7.796875 5.152344 7.796875 6.328125 L 7.796875 40.066406 C 7.796875 41.242188 8.746094 42.191406 9.921875 42.191406 L 36.714844 42.191406 C 37.890625 42.191406 38.839844 41.242188 38.839844 40.066406 L 38.839844 15.230469 C 38.839844 15.191406 38.824219 15.15625 38.796875 15.128906 L 27.914062 4.246094 C 27.886719 4.21875 27.851562 4.203125 27.8125 4.203125 Z M 9.921875 4.484375 L 27.753906 4.484375 L 38.558594 15.289062 L 38.558594 40.066406 C 38.558594 41.089844 37.738281 41.910156 36.714844 41.910156 L 9.921875 41.910156 C 8.898438 41.910156 8.078125 41.089844 8.078125 40.066406 L 8.078125 6.328125 C 8.078125 5.304688 8.898438 4.484375 9.921875 4.484375 Z M 9.921875 4.484375 "/>
<path style="fill-rule:nonzero;fill:url(#linear4);stroke-width:11.338583;stroke-linecap:butt;stroke-linejoin:miter;stroke:rgb(12.941176%,12.941176%,12.941176%);stroke-opacity:1;stroke-miterlimit:4;" d="M 774.414246 706.389245 C 761.502093 706.54671 750.164593 714.89237 743.551051 724.970148 C 750.007128 749.219801 744.968239 774.571711 743.708516 799.136295 C 706.074314 800.553482 668.282647 800.081086 630.648445 798.663899 C 601.674834 807.167024 592.069452 841.494455 626.711813 854.249143 C 664.503481 852.831955 702.295148 850.942372 739.92935 848.737858 C 738.197232 883.537685 737.724836 918.494977 738.197232 953.452269 C 710.325877 965.577095 684.344106 982.42588 662.771363 1003.998624 C 616.47657 1048.876228 596.47848 1121.782653 621.987855 1182.406786 C 641.985946 1228.701578 704.499662 1239.409217 746.227961 1217.836474 C 761.029697 1216.734217 783.862163 1187.130744 792.050357 1199.885432 C 819.134385 1245.707828 885.112338 1202.404876 839.762337 1146.032306 C 884.010081 1095.958347 911.72397 1034.074492 933.296713 971.403311 C 948.885776 974.237686 964.947234 977.701922 980.063901 983.370672 L 980.063901 934.39897 C 977.701922 933.769109 975.497408 933.139248 973.135429 932.509387 C 956.75904 929.675012 942.114769 927.313033 953.137338 909.361991 C 961.797929 896.764768 971.560776 893.300532 967.466679 882.120497 C 949.515637 876.136817 930.304873 874.089768 911.72397 869.68074 C 884.797407 864.01199 901.803657 905.740289 889.836296 921.171887 C 856.296191 923.06147 822.598621 926.525706 790.160774 935.343762 C 790.160774 905.267893 791.892892 875.03456 793.939941 844.958691 C 856.453657 839.604872 918.967373 832.833865 980.851228 821.496365 C 1001.479179 817.559733 1001.479179 770.005218 965.41963 770.005218 C 915.975532 782.130045 865.586643 789.688378 815.040288 795.042198 C 790.160774 802.757996 802.128135 751.896711 811.418587 728.276919 C 798.821364 711.90053 785.909211 706.074314 774.414246 706.389245 Z M 1060.056263 915.188206 C 1037.853659 915.188206 1020.060082 933.454178 1020.060082 956.286644 L 1020.060082 1255.155745 L 1080.054354 1255.155745 L 1080.054354 1141.780744 L 1220.040988 1141.780744 L 1220.040988 1255.155745 L 1280.035259 1255.155745 L 1280.035259 956.286644 C 1280.035259 933.454178 1262.084217 915.188206 1240.039078 915.188206 Z M 876.924143 967.624144 C 862.279872 1012.029353 844.958691 1056.434562 817.402267 1094.54116 C 804.490114 1058.796541 794.727267 1021.7922 792.050357 983.685603 C 819.764246 975.969804 847.950532 969.356262 876.924143 967.624144 Z M 1100.052444 976.914596 L 1200.042897 976.914596 C 1211.065467 976.914596 1220.040988 986.205047 1220.040988 997.542547 L 1220.040988 1079.896889 L 1080.054354 1079.896889 L 1080.054354 997.542547 C 1080.054354 986.205047 1088.87241 976.914596 1100.052444 976.914596 Z M 741.818933 1004.78595 C 744.338377 1029.193069 747.645148 1053.442722 752.998968 1077.377444 C 751.739246 1102.256958 785.27935 1136.584389 758.825183 1152.015987 C 736.307648 1169.809563 700.405564 1184.92623 674.423793 1166.187862 C 658.834731 1145.55991 662.141501 1116.901229 667.495321 1093.123972 C 676.313377 1053.442722 707.648967 1024.15418 741.818933 1004.78595 Z M 980.063901 1175.005918 C 956.444109 1185.556091 930.462338 1191.854703 906.05522 1196.893591 C 887.474317 1196.421196 874.562164 1277.358349 974.710082 1241.928661 C 976.4422 1241.2988 978.331783 1240.668939 980.063901 1240.039078 Z M 980.063901 1175.005918 " transform="matrix(0.0248071,0,0,0.0248071,0,0)"/>
</g>
</svg>
